X: 0
T: O Blessed, Blessed Be The Lord And King
Z: Mr. G. B. Lissant
Z: Copyright © 2004 by Douglas D. Anderson
Z: Released To The Public Domain
L: 1/4
M: 3/4
Q: 1/4=110
V: P1 name="Staff"
%%MIDI program 1 19
K: G
[V: P1]  B |. B!>! A2 |. A!>! G2 | E3/4 F/4 G c | B2 d | d c2 | c B2 |!>! A3/ E/ F/ G/ |!>! A2 ^A |. B!>! F2 |. A!>! G2 | G3/4 A/4 B ^c |!>! d2 F | A3/ F/ D/ E/ |!>! F2 G |!>! F2 E!>! D2 D |!>! A3/ ^G/ A/ B/ | (G B) e | d2 c | B2 B | (B A) E | Gz/ G/ F/ E/ | D2 A | G2|]
w: O bless- ed, bless- ed be the Lord and King, The God of God, Who veils His face on high; O bless- ed, bless- ed Let His peo- ple sing, For He hath brought to man re- demp tion nigh: O bless- ed be the God_ of Is- ra el The Word_ made flesh, our own Em- man u el.

